X:1
T:Blue Lampshade (for fun)
T:Blue Lampshade
T:as performed by the composer, Tom Brier Transcribed by mlololoer 
T:https://musescore.com/user/19465036/scores/6370334 Transcribed from: https://www.youtube.com/watch?v=GJuzr7o_PJc 
C:Tom Brier
%%score { ( 1 4 ) | ( 2 3 ) }
L:1/8
M:4/4
K:Ab
V:1 treble nm="Piano" snm="Pno."
V:4 treble 
V:2 bass 
V:3 bass 
V:1
 x2 |[Q:1/2=80]"^Tempo di Fox Trot"!f! !arpeggio![C=EGBc]2 .[=D=d]2 .[E=e]2 [FAcf]2 | %2
 .[Gg]2 .[Aa]2 .[Bb]2 .[cc']2 | %3
 (3:2:2[dfad']2 f' (3d'af (3dAF[Q:1/2=80] (3D[I:staff +1]A,F,[Q:1/2=95] | %4
[Q:1/2=70] =E,2[Q:1/2=65][I:staff -1] z2[Q:1/2=60] [c=egbc']4 | %5
 [=df^g=b=d']4 [^d^f=ac'^d']4[Q:1/2=57] | %6
[M:7/4][Q:1/2=62] [=egbc'=e']2[Q:1/2=67] (3[CBc][CBc][CBc][Q:1/2=65] .[=DB=d].[^DB^d][Q:1/2=63].[=EBe].[Ff][Q:1/2=62] .[^F^f].[Gg].[Aa][Q:1/2=58] .[=A=a][Q:1/2=50].[Bb][Q:1/2=40].[=B=b] | %7
[Q:1/2=70] [c=egbc']4 (C/[Q:1/2=123]=E/G/B/ c/e/g/b/!8va(! c'/=e'/g'/b'/!8va)!!8va(! c''/=e''/g''/b''/[Q:1/2=80] .!fermata!c'''2)!8va)! || %8
[M:4/4][Q:1/2=98] z8 | z8 | z8 | %11
[K:bass] x4[Q:1/2=40] x/x/(3x/x/x/ !//-!x/x/(5:4:5x/4x/4x/4x/4x/4 || %12
[K:treble]"^Swing 8ths."[Q:1/2=98] [ac'][g=b][ac']c [g_b][^f=a][gb]c | %13
 [=f_a][=eg][fa]B [eg][^d^f][eg]=A | [c=f]=e[cf]_g [cf]=A[c_e]F- | [FBd] [E=Ac]2 [DFB]- [DFB]2 z2 | %16
 z [EBde][Ff][^F^f] [GBdg][ee'][__e__e'][dd'] | [c_eac']ba[ceac']- [ceac']=bc'=d' | %18
 e'=d'c'e' d'c'=bd' | [=eg_bc']8 | [ac'][g=b][ac']c [g_b][^f=a][gb]c | %21
 [fa][=eg][fa]B [eg][^d^f][eg]=A | [c=f]=e[cf]_g [cf]=A[c_e]F- | [FBd] [E=Ac]2 [DFB]- [DFB]2 z2 | %24
 z [EBde][Ff][^F^f] [GBdg][ee'][__e__e'][dd'] | [ac']baf- fagf | =dagf [_Bc] [B=ea]2 [FAcf]- | %27
 [FAcf][Dd][CFAc] z [dd'] [c=egc']2 [ac']- |[Q:1/2=100] [ac'][g=b][ac']c [g_b][^f=a][gb]c | %29
 [=f_a][=eg][fa]B [eg][^d^f][eg]=A | [c=f]=e[cf]_g [cf]=A[c_e]F- | [FBd] [E=Ac]2 [DFB]- [DFB]2 z2 | %32
 z [EBde][Ff][^F^f] [GBdg][ee'][__e__e'][dd'] | [c_eac']ba[ceac']- [ceac']=bc'=d' | %34
 e'=d'c'e' d'c'=bd' | [=eg_bc']8 | [ac'][g=b][ac']c [g_b][^f=a][gb]c | %37
 [fa][=eg][fa]B [eg][^d^f][eg]=A | [c=f]=e[cf]_g [cf]=A[c_e]F- | [FBd] [E=Ac]2 [DFB]- [DFB]2 z2 | %40
 z [EBde][Ff][^F^f] [GBdg][ee'][__e__e'][dd'] | [ac']baf- fagf | =dagf [_Bc] [B=ea]2 c- | %43
 [Acf]4 !arpeggio![fac'f']4 ||[Q:1/2=102] z [Ee][Ff][^F^f] [Gg][ee'][__e__e'][dd'] | %45
 [cc'][Aa][Bb][=B=b] [cc']!8va(![aa'][gg'][_g_g'] | %46
[Q:1/2=103] [ff'][cc'][dd'][ee'] [ff'] [aa']2 [bb'] | %47
 [c'e'c''][f'b'][e'a'][c'f'] [be']!8va)![fb][ea]c- |[Q:1/2=104] [c=egc']d-[deb]c- [cea]B-[Beg]A- | %49
 [Acg]fab c'ac'=d' |[Q:1/2=105] e'c'e'=d' c'e'c'd' | =bgc'g c'_baf | %52
[Q:1/2=106] z [EBe][Ff][^F^f] [GBg][ee'][__e__e'][dd'] | %53
 [ceac'][Aa][Bb][=B=b] [ceac']!8va(![aa'][gg'][_g_g'] | %54
 [fd'f'][cc'][dd'][ee'] [fd'f'] [aa']2 [bb'] | %55
 [c'=e'g'c'']!8va)![^f^f'][gc'e'g'][^d^d'] [=egc'e'][=B=b] [cegc']2 | z [f=af'] (3e'g^g ad'[ec']f | %57
 c'bfa gf^fg | fcec GEc[CA]- | [CA]2 z2 [Acea]2 z2 || z [EBde][Ff][^F^f] [Gg][ee'][__e__e'][dd'] | %61
 [cc'][Aa][Bb][=B=b] [cc']!8va(![aa'][gg'][_g_g'] | [ff'][cc'][dd'][ee'] [ff'] [aa']2 [bb'] | %63
 [c'e'c''][f'b'][e'a'][c'f'] [be']!8va)![fb][ea]c- | [c=egc']d-[deb]c- [cea]B-[Beg]A- | %65
 [Acg]fab c'ac'=d' | e'c'e'=d' c'e'c'd' | =bgc'g c'_baf | %68
 z [EBde][Ff][^F^f] [Gg][ee'][__e__e'][dd'] | [ceac'][Aa][Bb][=B=b] [cc']!8va(![aa'][gg'][_g_g'] | %70
 [fd'f'][cc'][dd'][ee'] [fd'f'] [aa']2 [bb'] | %71
 [c'=e'g'c'']!8va)![^f^f'][gc'e'g'][^d^d'] [=egc'e'][=B=b] [cegc']2 | z [f=af'] (3e'g^g ad'[ec']f | %73
 c'bfa gf^fg | fcec GE c2 | [CA]4 [B=egc']4 || [ac'][g=b][ac']c [g_b][^f=a][gb]c | %77
 [=f_a][=eg][fa]B [eg][^d^f][eg]=A | [c=f]=e[cf]_g [cf]=A[c_e]F- | [FBd] [E=Ac]2 [DFB]- [DFB]2 z2 | %80
 z [Ee][Ff][^F^f] [Gg][ee'][__e__e'][dd'] | [c_eac']ba[ceac']- [ceac']=bc'=d' | %82
 e'=d'c'e' d'c'=bd' | [=eg_bc']8 | [ac'][g=b][ac']c [g_b][^f=a][gb]c | %85
 [fa][=eg][fa]B [eg][^d^f][eg]=A | [c=f]=A[cf]_g [cf]A[ce]F- | F [E=Ac]2 [DFB]- [DFB]2 z2 | %88
 z [EBe][Ff][^F^f] [Gg][ee'][__e__e'][dd'] | [ac']baf- fagf | =dagf [_Bc] [Ba]2 c- | %91
 [FAcf]2 z2 [fac'f']4 || %92
[K:Db]"^Straight."[Q:1/2=70]"^rit e. dim.""_dim." [B,=DFAB][B,B][Cc][^C^c][Q:1/2=70] [DAB=d][Bb][__B__b][Aa] | %93
[Q:1/2=75] [=Gde=g][Ee][Ff][Q:1/2=70][^F^f] [Gdeg][ee'][Q:1/2=65][__e__e'][dd'] | %94
[Q:1/2=63] [cgac'][Aa][Q:1/2=60][Bb][=B=b][Q:1/2=55] [cgac']!8va(![aa'][Q:1/2=50][_bb'][=b=b'] | %95
 .[c'e'c'']2 .[_c'e'_c'']2[Q:1/2=47] .[be'b']2 .[__be'__b']2 | %96
[Q:1/2=75] [aa']2[Q:1/2=55]{b'} !trill(!Ta'4[Q:1/2=55] =g'a'!8va)! | %97
!8va(! a''4!8va)![Q:1/2=53] z4[Q:1/2=48]"^Swing" || %98
[Q:1/2=95]"^A tempo""^Swing 8ths."!f!{de=e} f [dfad']3- [dfad']4 |{=ga=a} b [c_g_a]3- [cga]4 | %100
{de=e} f [Adfa]3- [Adfa]4 |{de=e} f [F_c_e]3- [Fce]4 |[Q:1/2=96]{GA=A} B [GBd]3- [GBd]4 | %103
{d=de} _f [__A__B_d]3- [ABd]4 |{de=e} f [Adfa]3- [Adfa]4 |{de=e} f [A=dfb]3- [Adfb]4 | %106
[Q:1/2=97]{=ga=a} b [df]3- [df]4 |{fg=g} a [cf]3- [cf]4 | f3 d BABd | %109
 [__A__Bd_f]4 [_Ac=f] [Ace]3 ||{de=e} f [dfad']3- [dfad']4 |{=ga=a} b [c_g_a]3- [cga]4 | %112
{de=e} f [Adfa]3- [Adfa]4 |{de=e} f [F_c_e]3- [Fce]4 |{GA=A} B [GBd]3- [GBd]4 | %115
{d=de} _f [__A__B_d]3- [ABd]4 |{de=e} f [Adfa]3- [Adfa]4 |{de=e} f [A=dfb]3- [Adfb]4 | %118
{=ga=a} b [df]3- [df]4 |{fg=g} a [cf]3- [cf]4 | (3.[Dd]2 .[Ee]2 .[=E=e]2 (3.[Ff]2 .[Gg]2 .[Aa]2 | %121
 [Bb] [=B=b]2 [cegc']- [cegc'] [gc'e'a']3 || %122
[Q:1/2=105]"^(gradually speed up to 125)" z [dfad']2 [dfb]- [dfb]a (3=efg | %123
 [ca] [Bcg]2 [Acf]- [Acf] [Gce]2 [FAd]- | [FAd]2{=e'} [ff']2 z{e'} [ff']2 z | %125
 [_f_f']2 [ee'][dd']- [dd'] [dd']2 =a |[Q:1/2=108] b [dd']2 =a b [dd']2 _a | %127
 __b [dd']2 a b [dd']2 [dfad']- | [dfad'] [Bdfb]2 [Adfa]- [Adfa] [=Ade=a]2 [B=dfb]- | %129
 [Bdfb] [fb=d'f']2 [gbd'g']- [gbd'g'] [fbd'f']2 b |[Q:1/2=109] [=gf']/e'/d'/b/ g2 [=Gf]/e/d/B/ G2 | %131
 (3[Gf]ec A[Gcea]- [Gcea] [Gce]2 [F_ce]- | [Fce][F_ce] .[^F=c=e]2 [=Gdf]2 .[^G=d^f]2 | %133
 [=Ae=g][B_fa][=B=f=a][c_gb]- [cgb]4 ||[Q:1/2=110] z [dfad']2 [=efb]- [efb] [fa]2 [c=g]- | %135
 [cg] [ca]2 [Bc_g]- [Bcg] [Ba]2 [Adf]- | [Adf] [FA]2 [FB]- [FB] [FB]2 [FAd]- | [FAd]dcc _ccA=A | %138
 B=AB[Gd] AB[Gd]_A | __B[_Fd]AB [Fd]AB[=Fd] | =GA[Fd]G A[Fd]GA | =d^cd[Adf]- [Adf] [Adfb]3 | %142
 z [Bb]2 =g [Bb] [ee']2 [dd'] | [=B=b] [cc']2 [fac'f']- [fac'f'][_f_f'] [ee']2 | %144
 [dfad']2 [Bb]A- [Aa]F-[Ff]D- | [Dd]4 [dfad']2 (3dfb ||[Q:1/2=111]!mf! d'3 f b [dd']2 b | %147
 [c=e=gc']2 z [=GBeg]- [GBeg]4 |!<(! [ce=ac']2 [^G^g][=Aa]- [Aa] [ff']2 c' | %149
 [^c^c']2 [=d=d'][Bb]- [Bb]3 [e=gbe']-!<)! |!f! [egbe'] [e=gbe']2 [dd'] [=B=b]2 [ee']2 | %151
[Q:1/2=112] [=e=e'] [ff']2 [dfbd']- [dfbd']2 b[ded']- | %152
 [ded'] [c=ec']2 [=GBe=g]- [GBeg] [cec']2 [Bb] | [=A=a][^G^g][Aa][dd']- [dd'][dd'] [cc']2 | %154
 z [dfbd']2 z [Bdfb]2 [dfbd']2 |[Q:1/2=113] [c=e=gc']2 [=B=b][cc']- [cc'] [g=g']2 e' | %156
 [gc'g']2 [gc'g'][fc'f']- [fc'f'] [ec'e']2 [cc'] | [^ca^c']2 [=d=d'][Bb]- [Bb] [fad'f']2 d' | %158
 [=eb=e']2 [fbf']2 [eae']2 [faf']2 | [=ea=e'] [ff']2 [dfad']- [dfad'] [_e_e']3 | %160
 .[_f__a_f']2 [ee'][dad']- [dad'] [__Bd__b]2 e- |!mf! [Acea]2 [__A__a][Gg]- [Gg][=E=e] [Ff]2 || %162
 [FAd]8 | [CGA]8 | .[FA]2 z .[DFB]- [DFB] z .[DFA]2 | z .[A,DF]2 z .[F,A,_CE]2 .[F,A,CD]2 | %166
!f! z2 [DGB]=A B [DGBd]3 | [__A__B]_AB[D__Ad]- [DAd] [Ad__b]3 | z2 [DFA]=G A [DFAd]3 | %169
 [=DB]=AB[_A=d]- [Ad] [Bb]3 | z2 [=Gdf]_f e[Gd=f]_fe | [Gcf]_fe[Gca]- [Gca]=e [G=f]2 | %172
 .[DFA]2 (3FG=G A B2 A | d3 c- [EGc]B [EG_A]2 || [DFA]8 | [CEGA]8 | [DFA]8 | [_cdfa]8 | [GBdg]8 | %179
 [_F__A__Bd]8 | [DFA]8 | [=DFAB]8 | [DE=GB]8 | [CEGA]8 | z [DF]2 [=EFB]- [EFB]A (3EFA | %185
 D4 [dfad']4 ||!mf! [FB]4- [FB]B [Fd]2 | [=Gc]2 (3cdc G4 | [=Ac]6 (3Adc | [=DAB]2 (3BcB F4 | %190
[Q:1/2=114]!f! [DB]=AB=B .[Cc]2 .[CG_A]2 | [Dd]2 [Ee][=EAd=e]- [EAde] [FAdf]2 d- | %192
 [Fdf]2 [Ff][FA=d]- [FAd] [FAf]2 d |[Q:1/2=115] [=GBf]_fe[_Gca]- [Gca] [Gce]3 | %194
 z2 [FA=d]^c [FAd]c [FAd]2 | [FAB]c B2 [FB]2 A2 |[Q:1/2=116] z2 [DE=GB]=A BGED | %197
 [DB]=A B2 [D=G]2 [DE]2 |!f! z [D=GBe]2 [Dd] [C_Gc]2 [Ee]2 | %199
[Q:1/2=117] [=EAd=e] [Ff]2 [Dd]- [Dd] [_E_e]3 | [_F__Ad_f]2 [Ee][DAd]- [DAd] [DA__B]3 | %201
 [CGA]2 B[CGA]- [CGA] [CG]3 ||[Q:1/2=112] [A,DF]4 [DFA]4 | [CEG]4 [EGB]4 | %204
 .[DFA]2 [FAdf]4 [=E=Gc=e]2 |[Q:1/2=117] [FAdf]8 | z2 .[egbe']2 [dgbd']2 .[Bb]2 | %207
 [e__be']2 [dd'][__Bb]- [Bb] [ee']2 b |[Q:1/2=120] [dfd']2 [Bb]2 [Afa]2 [=A=a][B=dfb]- | %209
 [Bdfb] [__B__b]2 [A=dfa]- [Adfa] [_B_b]2 =e | [=Gf] B2 =e [Gf] B2 e | %211
[Q:1/2=121] [Gf] =e2 [Gcf]- [Gcf] [Gc_e]3 | fedB ABAF | D_F__BC- [CGA]2 [CE]2 || %214
[Q:1/2=122] [A,DF] [A,DF]2 [A,D] [F,F]2 [A,D]2 | [G,EG] [G,CE]2 [CE] [G,G]2 [=G,D=G]2 | %216
 [A,DA] [A,DA]2 [Dd] [Dd]2 [A,DA][A,DA]- | [A,DA][Dd] [Dd]2{=e} [Ff]2{e} [Ff]2 | %218
[Q:1/2=123] [GB_f]2 [GBe][GBd]- [GBd] [GBe]2 d | [__A__B_f]2 [Ae][ABd]- [ABd] [ABe]2 d | %220
 [FAf]2 [FAe][FAd]- [FAd] [FAe]2 d | [=EA=e] [Ff]2 [A=dfb]- [Adfb] [Adfb]2 f | %222
 [Bdb] [Bd=gb]2 g- [Bdgb] [Bdb]2 g | [=Bf=b] [cc']2 [faf']- [faf'] [eae']2 [dfad']- | %224
 [dfad'] [Bb]2 [Aa]- [Aa] [Ff]2 [Dd]- |[Q:1/2=124] [Dd] [Dd]2 [Cc]- [Cc] [_C_c]2 [B,B]- || %226
 [B,B]2 [Bb]d f [dd']2 b | [c=e=gc']3 [=Gceg]- [Gceg]3 [c_e=ac']- | %228
 [ceac'](3f/=g/^g/ =a[fac'f']- [fac'f'] [ee']2 c' | [^ca^c'] [=d=d']2 [Bdfab]- [Bdfab]3 [e=gbe']- | %230
 [egbe'] [d=gbd']2 b [c_gc']2 [ee']2 | [=e=e'] [ff']2 [dfbd']- [dfbd']f [Bb]2 | %232
 [dfd']3 [Bb]- [Bb] [dfd']2 b | [c=ec']b=ge c4 | DDFB dB F2 | cB=G=E C- [CEGBc]2 C | %236
 [E=Ac]CEc [FA]CEA | [=DF]B,DF AB,DF | [D=G]=G,DE [C_G]_G,CE | [DF]F,A,D A,4 | %240
 [__B,_F]__A,B,D FDB,=G, | A,4 .[cea]2 z2 | [F,A,DF]4 .[FAdf]2 z2 | [G,CEG]4 .[Gceg]2 z2 | %244
 [A,DFA]4 [Adfa]4 | (3[faf']2 [_f_f']2 [ee']2 .[dd']2 [_c_c']2 | [Bb]2 [Bb]2 d [Be]2 d | %247
 [__B__b]2 [Bb]2 d [Be]2 d- | [Adfa]2 [Afa]2 d [Ae]2 d | [=A=a] [Bb]3 [ff'] [=e=e']2 d'- | %250
 [fd'f']2 [fbd'f']2 [=e=e'] [fbd'f']2 e' | [fac'f']2 [ee']2 [cac'] [Aa]2 [dfad']- | %252
 [dfad'] [cc']2 [Bb]- [Bb] [__B__b]2 [Aa]- | [Aa] [Gg]2 [=E=e]- [Ee] [Ff]2 [FAdf] || %254
"^Straight 8ths." [FAdf] [FAdf]2 [Adfa] [Adfa] [Adfa]2 [Gceg] | %255
 [Gceg] [Gceg]2 [Bcegb] [Bcegb] [Bcegb]2 [Adfa] | %256
 [Adfa] [Adfa]2 [dfad'] [dfad'] [dfad']2 [fa_c'f'] | %257
 [fa_c'f'] [fac'f']2!8va(! [ad'f'a'] [ad'f'a'] [ad'f'a']2 [=ad'=a'] | %258
 [=ad'=a'] [ad'a']2 [bd'g'b'] [bd'g'b'] [bd'g'b']2 [d'__a'd''] | %259
 [d'__a'd''] [d'a'd'']2 [_f'a'd''_f''] [f'a'd''f''] [f'a'd''f'']2 [=f'_a'd''=f''] | %260
 [f'a'd''f''] [f'a'd''f'']2 [a'd''f''a''] [a'd''f''a''] [a'd''f''a'']2 [b'=d''b'']- | %261
 [b'd''b'']a'f'=d'!8va)! baf=d | =G [Bf]2 G [Bde]2 G2 | [cb]2 a[cb]- [cb] a2 [dfad']- | %264
 [dfad'] [Bb]2 [Aa]- [Aa] [Ff]2 [DFAd]- | [DFAd]4 [dfad']3 d- || %266
[Q:1/2=115]"^rit e. dim.""_dim." [DFAd]=D-[D^F=A=d]e-[Q:1/2=113] [E=GBe]=E-[Q:1/2=110][E^G=B=e]f- | %267
[Q:1/2=107] [F=Acf]G-[Q:1/2=100][GBdg]=g-[Q:1/2=90] [=G=B=dg]_A-[Q:1/2=80][Acea]=a- | %268
[Q:1/2=70] [=A^c=ea]B-[Q:1/2=60][B=dfb]=b-[Q:1/2=50] [=B^d^fb]=c-[c_egc']_b | %269
[K:Db][M:7/4][Q:1/2=45]!mf! !trill(!Ta8 a/g/e/c/ B/A/G/E/ C/B,/[I:staff +1](3A,/G,/E,/[Q:1/2=50] | %270
[K:Db][M:4/4][Q:1/2=55]!f! C,D,[Q:1/2=50]=D,E,[Q:1/2=45] [C,B,]A, (3G,E,=E, | %271
[Q:1/2=50] [_C,D,F,]2[Q:1/2=48][I:staff -1] [Adfa]2[Q:1/2=46] [_cfa_c']2[Q:1/2=43] [fad'f']2 | %272
[Q:1/2=47] [_F,G,B,D]2[Q:1/2=44] [GBd_f]2[Q:1/2=40] [gbd'_f']2[Q:1/2=40]!8va(! [g'b'd''_f'']2!8va)! | %273
[K:Db][M:10/4][Q:1/2=35] !arpeggio!.[A,DF] z[Q:1/2=40] [ad'f']2- ([ad'f'][Q:1/2=55] (3e'/f'/e'/[Q:1/2=47] d'b[Q:1/2=25] a/[Q:1/2=47]f/[Q:1/2=55]g/=g/[Q:1/2=60] a/f/[Q:1/2=65]d/B/[Q:1/2=75] A/F/G/=G/[Q:1/2=80] A/F/D/B,/ A,/F,/G,/=G,/[Q:1/2=45] A,2) | %274
[M:4/4][Q:1/2=55] [D,_F,__B,]4[Q:1/2=45] !trill(!TB,3[Q:1/2=45] A,/B,/ | %275
[Q:1/2=45] __B_FG__A[Q:1/2=40] B{B}A[Q:1/2=35]GF | %276
[M:9/8][Q:1/2=30] E[Q:1/2=28]Cc[Q:1/2=37] B[Q:1/2=30]!ff!A[Q:1/2=43] [Gcf]2 [Gc_f]2 | %277
[M:11/4]!ff! !>![FA_ce]2-[Q:1/2=120] x x/ _C/D/F/A/ D/F/A/ c/d/f/a/ d/f/a/!8va(! _c'/d'/f'/a'/ e'/f'/a'/!8va)!!8va(! _c''/d''/f''/a''/-[Q:1/2=60] a''2 !trill(!Ta''4!8va)! | %278
[M:4/4] x2 x2 x2!sfz![I:staff +1]{B,,=B,,C,} !>!.D,2 |] %279
V:2
 x2 |{C,-} C,2 .[=B,,=B,]2 .[_B,,_B,]2 [A,,A,]2 | .[G,,G,]2 .[F,,F,]2 .[D,,D,]2 .[C,,C,]2 | %3
 [=B,,,=B,,]6 [B,,,B,,]2 | %4
 [C,,C,]2!8vb(! !>![C,,,C,,]2!8vb)! [G,B,C=E]2!8vb(! !>![C,,,C,,]2!8vb)! | %5
 [^G,=B,=DF]2!8vb(! !>![C,,,C,,]2!8vb)! [=A,C^D^F]2!8vb(! !>![C,,,C,,]2!8vb)! | %6
[M:7/4] [C=EG]2 (3[=E,,=E,][E,,E,][E,,E,] .[=D,,=D,].[_D,,_D,].[C,,C,].[B,,,B,,]!8vb(! .[=A,,,=A,,].[G,,,G,,].[F,,,F,,] .[=E,,,E,,].[=D,,,=D,,].[_D,,,_D,,] | %7
!ped! [C,,,G,,,C,,]4!8vb)! x2 x2 x2 x2!ped-up! x2 ||[M:4/4]!8vb(! !>!C,,8 | !>!B,,,8 | %10
 (3!>!A,,,4 !>!B,,,4 !>!A,,,4 | G,,,4{A,,,} !trill(!TG,,,4 || %12
 F,,,2!8vb)! .[A,CF]2 [C,,C,]2 .[G,B,C=E]2 | [F,,C,F,]2 .[A,CF]2 [C,,C,]2 .[G,B,C=E]F,,- | %14
 [F,,C,=A,]2 [A,C_EF]2 [F,,,F,,]2 .[F,,F,]2 | [B,,,B,,]2 .[C,,C,]2 [D,,D,]2 [=D,,=D,]2 | %16
 [E,,E,]2 [E,G,B,D][E,,E,] [F,,F,]2 [G,,G,]2 | .[A,,E,A,]2 .[E,A,C]2 [E,,E,]2 .[E,A,C]G,,- | %18
 .[G,,E,G,]2 G,,-[G,,=D,=B,]- [G,,D,B,]G,,-[G,,D,B,]C,- | %19
 [C,=E,G,C][=B,,=B,][C,C][_D,_D] [C,C][_B,,_B,][G,,G,][A,,A,] | %20
 .[F,,F,]2 .[A,CF]C,,- [C,,G,,=E,]2 [G,B,C=E]F,,- | %21
 .[F,,C,A,]2 .[A,CF]C,,- [C,,G,,=E,]2 [G,B,C=E]2 | .[=A,CEF]2 [F,,,F,,]2 .[G,,,G,,]2 [=A,,,=A,,]2 | %23
 .[B,,,B,,]2 .[C,,C,]2 [D,,D,]2 [=D,,=D,]2 | [E,,E,]2 [E,G,B,D][E,,E,] [F,,F,]2 [G,,G,]2 | %25
 .[A,,E,A,]2 .[E,A,C]2 [D,,D,]2 .[F,A,_CD]G,,- | [G,,=D,]2 .[G,=B,=DF]C,,- [C,,G,,]2 .[G,_B,C=E]2 | %27
 .[F,,F,]2 z [C,=E,G,B,]- [C,E,G,B,]2 [C,,C,]2 | [F,,,F,,]2 .[A,CF]2 [C,,C,]2 .[G,B,C=E]2 | %29
 [F,,,F,,]2 .[A,CF]2 [C,,C,]2 .[G,B,C=E]2 | [F,,,F,,]2 .[F,,,F,,]2 .[=A,CEF]2 [F,,F,]2 | %31
 [B,,,B,,]2 .[C,,C,]2 [D,,D,]2 [=D,,=D,]2 | [E,,E,]2 [E,,,E,,]2 [E,G,B,D][E,,E,][F,,F,][G,,G,] | %33
 .[A,,A,]2 .[E,A,C]2 [E,,E,]2 .[E,A,C]G,,- | %34
 [G,,E,G,]2 G,,-[G,,=D,=B,]- [G,,D,B,]G,,-[G,,D,B,]C,- | %35
 [C,=E,G,C][=B,,=B,][C,C][D,D] [C,C][_B,,_B,][G,,G,][A,,A,] | %36
 .[F,,F,]2 .[A,CF]2 [C,,C,]2 .[G,B,C=E]2 | [F,,,F,,]2 [C,,C,]2 [G,B,C=E]2 [C,,C,]2 | %38
 .[=A,CEF]2 [F,,,F,,]2 [G,,,G,,]2 [=A,,,=A,,]2 | .[B,,,B,,]2 .[C,,C,]2 [D,,D,]2 [=D,,=D,]2 | %40
 [E,,E,]2 [E,,,E,,]2 [F,,,F,,]2 [G,,,G,,]2 | .[A,,,A,,]2 .[E,A,C]2 [D,,D,]2 .[F,A,_CD]2 | %42
 [G,,=D,]2 .[G,=B,=DF]C,,- [C,,G,,]2 .[G,_B,C=E]2 | [F,,F,]4 [F,,,F,,]2 [F,,F,][^F,,^F,] || %44
 [G,,G,]2 .[E,G,B,D]2 [E,,E,]2 .[E,G,B,D]A,,- | [A,,E,C]2 .[E,A,C]2 [A,,,A,,]2 .[E,A,C]D,,- | %46
 [D,,A,,F,]2 [F,A,D]2 [F,,F,]2 [D,,D,]2 | .[C,,A,,C,]2 .[E,A,C]2 .[E,,E,]2 .[E,A,C]G,,- | %48
 [G,,=E,G,]C,,-[C,,C,]=D,,- [D,,=D,]=E,,-[E,,E,]F,,- | [F,,C,A,]2 .[F,A,C]2 [A,,A,]2 .[F,A,C]2 | %50
 .[G,,E,G,]2 [A,,E,_G,]2- [A,,E,G,] .[G,,E,=G,]2 [G,,=D,F,]- | %51
 [G,,D,F,]2 .[C,E,G,C]2 [B,,=D,F,A,]2 [B,,,B,,]2 | %52
 .[E,,,E,,]2 .[E,G,B,D]2 [E,,E,]2 .[E,G,B,D]A,,- | [A,,E,C]2 .[E,A,C]2 [A,,,A,,]2 .[E,A,C]D,,- | %54
 [D,,A,,F,]2 .[F,A,D]2 [F,,F,]2 [D,,D,]2 | [C,,C,]2 [G,,G,]2 [C,C]2 .[B,,B,]2 | %56
 [=A,,F,=A,]2 .[F,A,CE]2 [F,,F,]2 .[F,A,CE]B,,- | [B,,F,D]2 .[F,B,D]2 [=D,,=D,]2 .[F,A,=B,=D]2 | %58
 [E,,E,]2 .[E,G,B,D]2 [G,,G,]2 .[E,G,B,D]2 | %59
 [A,,A,][F,,F,][E,,E,][C,,C,] [A,,,A,,][G,,,G,,][A,,,A,,][=A,,,=A,,] || %60
 [B,,,B,,]2 [E,,,E,,]2 [E,G,B,D][E,,E,][F,,F,][G,,G,] | %61
 .[A,,A,]2 [A,,,A,,]2 [E,A,C][A,,,A,,][B,,,B,,][C,,C,] | .[D,,D,]2 .[F,A,D]2 [F,,F,]2 [_F,,_F,]2 | %63
 [E,,E,]A,,-[A,,A,]C,- [C,C]E,-[E,E]=E,- | [E,=E]C,,-[C,,C,]=D,,- [D,,=D,]=E,,-[E,,=E,]F,,- | %65
 [F,,A,]2 .[F,A,C]2 [A,,A,]2 [F,A,C]2 | %66
 .[G,,E,G,]2 [A,,E,_G,]2- [A,,E,G,] .[G,,E,=G,]2 [G,,=D,F,]- | %67
 [G,,D,F,]2 .[C,E,G,C]2 [B,,=D,F,A,]2 [B,,,B,,]2 | %68
 .[E,,,E,,]2 [E,,E,]2 [E,G,B,D][E,,E,][F,,F,][G,,G,] | %69
 .[A,,A,]2 [A,,,A,,]2 [E,A,C][A,,,A,,][B,,,B,,][C,,C,] | .[D,,D,]2 .[F,A,D]2 [F,,F,]2 [D,,D,]2 | %71
 [C,,C,]2 [G,,G,]2 [C,C]2 [B,,B,]2 | [=A,,F,=A,]2 .[F,,F,]2 [G,,G,]2 .[A,,A,]2 | %73
 [B,,F,D]2 .[F,B,D]2 [=D,,=D,]2 .[F,A,=B,=D]2 | [E,,E,]2 .[E,G,B,D]2 [G,,G,]2 .[E,G,B,D]2 | %75
 [A,,A,]4 [G,,C,=E,G,]4 || [F,,,C,,F,,]2 .[F,A,C]2!8vb(! C,,,2!8vb)! .[G,B,C=E]2 | %77
!8vb(! F,,,2!8vb)! .[F,A,C]2!8vb(! C,,,2!8vb)! .[G,B,C=E]2 | %78
 [F,,,F,,]2 [F,,,F,,]2 [G,,,G,,]2 [=A,,,=A,,]2 | [B,,,B,,]2 [C,,C,]2 [D,,D,]2 [=D,,=D,]2 | %80
 [E,,E,]2 [=E,,=E,]2 [F,,F,]2 [G,,G,]2 | [A,,E,A,]2 .[E,A,C]2 [E,,E,]2 [A,,A,]2 | %82
 .[G,,E,G,]2 G,,-[G,,=D,=B,]- [G,,D,B,]G,,-[G,,D,B,]C,- | %83
 [C,=E,G,C][=B,,=B,][C,C][_D,_D] [C,C][_B,,_B,][G,,G,][A,,A,] | %84
 .[F,,F,]2 [C,,C,]2 .[G,B,C=E]2 [C,,C,]2 | .[A,CF]2 [C,,C,]2 .[G,B,C=E]2 [C,,C,]2 | %86
 .[=A,CEF]2 [F,,,F,,]2 .[A,CEF]2 [=A,,,=A,,]2 | [F,B,D]2 [B,,,B,,]2 [C,,C,]2 [=D,,=D,]2 | %88
 .[E,,E,]2 .[E,G,B,D][E,,E,] [F,,F,]2 [G,,G,]2 | .[A,,E,A,]2 .[E,A,C]2 [D,,D,]2 .[F,A,_CD]G,,- | %90
 [G,,=D,]2 .[G,=B,=DF]C,,- [C,,G,,]2 .[G,_B,C=E]2 | [F,,F,]2 [C,,C,]2 [F,,,F,,]4 || %92
[K:Db]!ped! !arpeggio![B,,=D,F,A,]6!ped-up!!ped! [B,,F,A,]2!ped-up! | %93
!ped! !arpeggio![E,=G,B,D]6!ped-up!!ped! [E,B,D]2!ped-up! | %94
!ped! !arpeggio![A,CEG]4!ped-up!!ped! !arpeggio![CEGA]4!ped-up! | x8 |!ped! x8!ped-up! | %97
 z2!<(! [A,,,A,,]2 [B,,,B,,]2 [C,,C,]D,,-!<)! || %98
 [D,,A,,D,]D,,-[D,,A,,E,]D,,- [D,,A,,F,]D,,-[D,,A,,D,]A,,- | %99
 [A,,E,A,]A,,-[A,,E,B,]A,,- [A,,E,C]A,,-[A,,E,A,]D,,- | %100
 [D,,A,,D,]D,,-[D,,A,,E,]D,,- [D,,A,,F,]D,,-[D,,A,,E,]D,,- | %101
 [D,,A,,D,]D,,-[D,,A,,E,]D,,- [D,,A,,F,]D,,-[D,,A,,D,]G,,- | %102
 [G,,D,G,]G,,-[G,,D,A,]G,,- [G,,D,B,]G,,-[G,,D,G,]__B,,- | %103
 [B,,_F,__B,]__B,,-[B,,F,_C]B,,- [B,,F,D]B,,-[B,,F,B,]D,,- | %104
 [D,,A,,D,]D,,-[D,,A,,E,]D,,- [D,,A,,F,]D,,-[D,,A,,D,]B,,,- | %105
 [B,,,F,,B,,]B,,,-[B,,,F,,C,]B,,,- [B,,,F,,=D,]B,,,-[B,,,F,,B,,]E,,- | %106
 [E,,B,,E,]E,,-[E,,B,,F,]E,,- [E,,B,,=G,]E,,-[E,,B,,E,]A,,- | %107
 [A,,E,A,]A,,-[A,,E,B,]A,,- [A,,E,C]A,,-[A,,E,A,]D,- | %108
 [D,F,A,D]B,,-[B,,B,]A,,- [A,,A,]F,,-[F,,F,]__B,,,- | %109
 [B,,,__B,,][_C,,_C,] [D,,D,]2 [A,,,A,,][_B,,,_B,,][=C,,=C,]D,,- || %110
 [D,,A,,D,]D,,-[D,,A,,E,]D,,- [D,,A,,F,]D,,-[D,,A,,D,]A,,- | %111
 [A,,E,A,]A,,-[A,,E,B,]A,,- [A,,E,C]A,,-[A,,E,A,]D,,- | %112
 [D,,A,,D,]D,,-[D,,A,,E,]D,,- [D,,A,,F,]D,,-[D,,A,,E,]D,,- | %113
 [D,,A,,D,]D,,-[D,,A,,E,]D,,- [D,,A,,F,]D,,-[D,,A,,D,]G,,- | %114
 [G,,D,G,]G,,-[G,,D,A,]G,,- [G,,D,B,]G,,-[G,,D,G,]__B,,- | %115
 [B,,_F,__B,]__B,,-[B,,F,_C]B,,- [B,,F,D]B,,-[B,,F,B,]D,,- | %116
 [D,,A,,D,]D,,-[D,,A,,E,]D,,- [D,,A,,F,]D,,-[D,,A,,D,]B,,,- | %117
 [B,,,F,,B,,]B,,,-[B,,,F,,C,]B,,,- [B,,,F,,=D,]B,,,-[B,,,F,,B,,]E,,- | %118
 [E,,B,,E,]E,,-[E,,B,,F,]E,,- [E,,B,,=G,]E,,-[E,,B,,E,]A,,- | %119
 [A,,E,A,]A,,-[A,,E,B,]A,,- [A,,E,C]A,,- [A,,E,A,]2 | .[D,A,D]2 z2 z4 | %121
 [E,=G,B,D] z z [E,_G,A,C]- [E,G,A,C]2 [A,,,A,,]2 || .[D,,D,]2 .[E,,E,]2 [F,,F,]2 .[G,,G,]2 | %123
 [A,,A,]2 .[E,G,A,C]2 [A,,,A,,]2 .[E,G,A,C]2 | [D,,D,]2 .[F,A,_CD]2 [A,,,A,,]2 .[F,A,CD]2 | %125
 [D,,D,]2 .[F,A,_CD]2 [E,,E,]2 .[F,,F,]2 | [G,,D,G,]2 .[G,B,D]2 .[D,,D,]2 .[G,B,D]2 | %127
 .[__B,,_F,__A,]2 .[A,__B,D_F]2 .[__B,,,B,,]2 .[A,B,DF]2 | %128
 [D,,D,]2 .[F,A,D]2 [D,,D,]2 .[_C,,_C,]2 | [B,,,B,,]2 .[F,A,B,=D]2 [B,,B,]2 .[F,A,B,D]2 | %130
 [E,,E,]2 .[E,=G,B,D]2 [=G,,E,G,]2 .[E,G,B,D]2 | %131
 [A,,E,G,]2 .[E,G,A,C]2 [A,,,A,,]2 .[E,G,A,C][D,A,]- | [D,A,][D,A,] .[=D,=A,]2 [E,B,]2 .[=E,=B,]2 | %133
 [F,C][G,D][=G,=D][A,E]- [A,E][E,E] [A,,A,]2 || .[D,,D,]2 .[F,A,D]2 [F,,F,]2 .[_F,,_F,]2 | %135
 [E,,C,E,]2 .[E,G,A,C]2 [A,,,A,,]2 .[E,G,A,C]2 | [D,,D,]2 .[F,A,D]2 [A,,,A,,]2 .[F,A,D]2 | %137
 [D,,D,]2 .[E,,E,]2 [F,,F,]2 .[D,,D,]2 | .[G,,D,G,]2 .[G,B,D]2 .[D,,D,]2 .[G,B,D]2 | %139
 .[__B,,_F,__A,]2 .[A,__B,D]2 .[__B,,,B,,]2 .[A,B,D]2 | %140
 .[D,,D,]2 .[F,A,D]2 [C,,C,]2 .[_C,,_C,]B,,,- | .[B,,,F,,=D,]2 .[F,A,B,=D]2 .[B,,B,]2 .[F,A,B,D]2 | %142
 .[E,,E,]2 .[E,=G,B,D]2 .[E,,E,]2 .[E,G,B,D]2 | [A,,E,G,]2 .[E,G,A,C]2 [A,,,A,,]2 .[E,G,A,C]2 | %144
 [D,F,A,D]2 [B,,B,]2 [A,,A,]2 [F,,F,]2 | [D,,D,]2 [A,,,A,,]2!8vb(! [D,,,D,,]4!8vb)! || %146
 [B,,F,D]2 z [F,B,D]- [F,B,D]2 [B,,B,]2 | .[=G,,=E,=G,]2 z [G,B,C=E]- [G,B,CE]2 [_G,,_G,]2 | %148
 .[F,,C,F,]2 z [F,=A,CE]- [F,A,CE] z [E,,E,]2 | %149
 .[=D,,B,,=D,]2 z [F,A,B,=D]- [F,A,B,D] z [B,,,B,,]2 | %150
 .[E,,E,]2 .[E,=G,B,D]2 .[A,,E,_G,]2 .[E,G,A,C]2 | [D,,D,]2 .[F,A,D]2 [B,,,B,,]2 .[F,B,D]2 | %152
 .[C,,C,]2 .[=G,B,C=E]2 .[=E,,=E,]2 .[G,B,CE]2 | .[F,,F,]2 z [F,=A,CE]- [F,A,CE] z [F,,F,]2 | %154
 .[B,,F,D]2 z [F,B,D]- [F,B,D] z [F,,F,]2 | .[=G,,=E,=G,]2 z [G,B,C=E]- [G,B,CE] z [C,,C,]2 | %156
 .[F,,C,F,]2 z [F,=A,CE]- [F,A,CE] z [E,,E,]2 | %157
 .[=D,,B,,=D,]2 z [F,A,B,=D]- [F,A,B,D] z [B,,,B,,]2 | %158
 .[E,,E,]2 .[E,=G,B,D]2 .[A,,E,_G,]2 .[E,G,A,C]2 | [D,,D,]2 .[F,A,D]2 [D,,D,]2 [_C,,_C,]2 | %160
 .[__B,,,__B,,]2 z [_F,__A,__B,D]- [F,A,B,D] z [B,,,B,,]2 | .[A,,,A,,]2 z2 z2 [A,,,A,,]2 || %162
 [D,,D,]2 [E,,E,][F,,F,]- [F,,F,][G,,G,] [=G,,=G,]2 | %163
 [A,,A,]2 [=A,,=A,][B,,B,]- [B,,B,][=B,,=B,] [C,C]2 | .[D,D]2 .[B,,B,]2 z .[A,,A,]2 z | %165
 .[F,,F,]2 z [E,,E,]- [E,,E,] z [D,,D,]2 | [G,,,G,,]2 .[G,B,]2 [D,,D,]2 .[G,B,]2 | %167
 .[__B,,_F,__A,]2 .[F,A,__B,D]2 .[__B,,,B,,]2 .[F,A,B,D]2 | [D,,D,]2 .[F,A,]2 [A,,,A,,]2 .[F,A,]2 | %169
 .[B,,,B,,]2 .[F,A,B,=D]2 .[B,,,B,,]2 .[F,A,B,D]2 | [E,,E,]2 .[E,=G,B,D]2 .[E,,E,]2 .[E,G,B,D]2 | %171
 .[A,,E,G,]2 .[E,G,A,C]2 [A,,,A,,]2 .[E,G,A,C]2 | .[D,F,A,]2 z2 z4 | %173
 [__B,,_F,__A,]3 [A,,E,G,]- [A,,E,G,]2 [A,,,A,,]2 || %174
 [D,,D,]E,,-[E,,E,]F,,- [F,,F,]G,,-[G,,G,]A,,- | [A,,A,]B,,-[B,,B,]=B,,- [B,,=B,]C,-[C,C]D,- | %176
 [D,D]E,-[E,E]=E,- [E,=E]F,-[F,F]A,- | [A,A]__A,-[A,__A]G,- [G,G]F,-[F,F]G,- | %178
 [G,G]E,-[E,E]D,- [D,D]B,,-[B,,B,]__B,,- | [B,,__B,]__A,,-[A,,__A,]_F,,- [F,,_F,]D,,-[D,,D,]D,,- | %180
 [D,,D,]D,,-[D,,D,]C,,- [C,,C,]_C,,-[C,,_C,]B,,,- | %181
 [B,,,B,,]C,,-[C,,C,]D,,- [D,,D,]=D,,-[D,,=D,]E,,- | %182
 [E,,E,]!8vb(!E,,,-[E,,,E,,]!8vb)!B,,,- [B,,,B,,]E,,-[E,,E,]A,,,- | %183
 [A,,,A,,]B,,,-[B,,,B,,]=B,,,- [B,,,=B,,]C,,-[C,,C,]D,,- | %184
 [D,,D,]2 [F,A,D]2 [A,,,A,,]2 [E,G,A,C]2 | [D,D]2 [A,,A,]2 [D,,D,]4 || [B,,F,D]8 | [=G,,=E,B,]8 | %188
 [G,,G,]4 [F,,F,]4 | [B,,F,A,]8 | [B,,E,=G,]2 .[E,G,]2 .[A,,E,_G,]2 .[E,G,A,]2 | %191
 .[D,,D,]2 .[F,A,D]2 .[D,,D,]2 .[F,A,D]2 | .[B,,,B,,]2 .[F,A,B,=D]2 .[B,,,B,,]2 .[F,A,B,D]2 | %193
 [E,,E,]2 .[E,=G,B,D]2 [A,,E,_G,]2 .[E,G,A,C]2 |!mf! [B,,F,A,]8- | [B,,F,A,]6 [B,,F,A,]2 | %196
 [E,,B,,E,]8- | [E,,B,,E,]8 | [E,,B,,E,]2 .[E,=G,B,]2 .[A,,E,_G,]2 .[E,G,A,C]2 | %199
 [D,,D,]2 .[F,A,D]2 [D,,D,]2 [_C,,_C,]2 | %200
 [__B,,,_F,,__B,,]3 [_F,__A,__B,]- [F,A,B,]2 [B,,,F,,B,,]2 | .[A,,,E,,A,,]2 z2 z2 [A,,,A,,]2 || %202
 [D,,A,,D,]4 [F,,D,F,]4 | [E,,C,E,]4 [G,,E,G,]4 | .[F,,A,,D,F,]2 [D,D]4 [C,C]2 | %205
 [D,D] .[D,D]2 [D,D] .[C,C]2 .[_C,_C]2 | [B,,B,]2 .[G,B,D]2 [D,,D,]2 .[G,B,D]2 | %207
 [__B,,_F,__A,]2 .[A,__B,D_F]2 [__B,,,B,,]2 .[A,B,DF]2 | [D,,D,]2 .[F,A,D]2 [D,,D,]2 .[_C,,_C,]2 | %209
 [B,,,F,,B,,]2 .[F,A,B,=D]2 [B,,,B,,]2 .[F,A,B,D]2 | [E,,E,]2 .[E,=G,B,D]2 [E,,E,]2 .[E,G,B,D]2 | %211
 [A,,E,G,]2 .[E,G,A,C]2 [A,,,A,,]2 [E,G,A,C]2 | .[D,F,A,D]2 z2 z4 | %213
 [__B,,_F,__A,]2 z2 [A,,E,G,]2 z2 || [D,,A,,D,] [D,,A,,D,]2 [D,,D,]- [D,,D,]2 [D,,A,,D,]2 | %215
 [E,,C,E,] [E,,C,E,]3 [E,,C,E,]2 [=E,,=E,]2 | %216
 [F,,D,F,] [F,,D,F,]2 [A,,A,] [A,,A,]2 [F,,D,F,][F,,D,F,]- | %217
 [F,,D,F,][A,,A,] [A,,F,A,]2 [D,D]2 [D,D]2 | [G,,G,]2 .[G,B,D]2 [D,,D,]2 .[G,B,D]2 | %219
 [__B,,_F,__A,]2 .[A,__B,D_F]2 [__B,,,B,,]2 .[A,B,DF]2 | [D,,D,]2 .[F,A,D]2 [D,,D,]2 [_C,,_C,]2 | %221
 [B,,,F,,B,,]2 .[F,A,B,=D]2 [B,,,B,,]2 .[F,A,B,D]2 | [E,,E,]2 .[E,=G,B,D]2 [E,,E,]2 .[E,G,B,D]2 | %223
 [A,,E,G,]2 .[E,G,A,C]2 [A,,A,]2 .[E,G,A,C]2 | [D,F,A,D]2 [B,,B,]2 [A,,A,]2 [F,,F,]2 | %225
 [D,,D,]2 [D,,D,]2 [C,,C,]2 [_C,,_C,]2 || [B,,,F,,B,,]2 .[F,B,D]2 [F,,F,]2 .[F,B,D]2 | %227
 [=G,,C,=E,=G,]2 .[G,B,C=E]2 [C,,C,]2 .[G,B,CE]2 | [F,,F,]2 .[F,=A,CE]2 [F,,F,]2 .[E,,E,]2 | %229
 [=D,,B,,=D,]2 .[F,A,B,=D]2 [B,,,B,,]2 .[F,A,B,D]2 | %230
 [E,,E,]2 .[E,=G,B,D]2 [A,,E,_G,]2 .[E,G,A,C]2 | [D,,D,]2 .[F,A,D]2 [D,,D,]2 .[F,A,D]2 | %232
 [B,,,B,,]2 .[F,B,D]2 [B,,,B,,]2 .[F,B,D]2 | .[C,,C,]2 z2 z2 [C,,=G,,]2 | %234
 .[B,,,B,,]2 z2 z2 [B,,,B,,]2 | .[C,,=G,,C,]2 z2 z2 [C,,G,,C,]2 | .[G,,G,]2 z2 .[F,,F,]2 z2 | %237
 .[=D,,B,,=D,]2 z2 .[B,,,B,,]2 z2 | .[E,,B,,E,]2 z2 .[A,,E,G,]2 z2 | %239
 .[D,,A,,D,]2 z2 z2 [D,,A,,D,]2 | .[__B,,,_F,,__B,,]2 z2 z4 | %241
!ped! [A,,,E,,A,,]4!ped-up! .[A,CEG]2 z2 |!ped! [D,,A,,D,]4!ped-up! .[F,A,D]2 z2 | %243
!ped! [E,,E,]4!ped-up! .[E,G,A,C]2 z2 |!ped! [F,,D,F,]4 [A,DF]4!ped-up! | .[DFA]2 z2 z4 | %246
 [G,,,G,,]2 .[G,B,D]2 [D,,D,]2 .[G,B,D]2 | [__B,,_F,__A,]2 .[A,__B,D_F]2 [__B,,,B,,]2 .[A,B,DF]2 | %248
 [D,,D,]2 .[F,A,D]2 [D,,D,]2 .[_C,,_C,]2 | [B,,,F,,B,,]2 .[F,A,B,=D]2 [B,,,B,,]2 .[F,A,B,D]2 | %250
 [E,,E,]2 .[E,=G,B,D]2 [E,,E,]2 .[E,G,B,D]2 | [A,,E,G,]2 .[E,G,A,C]2 [A,,,A,,]2 .[E,G,A,C]2 | %252
 [D,F,A,D]2 [C,C]2 [B,,B,]2 [__B,,__B,]2 | [A,,A,]2 [G,,G,]2 [=E,,=E,]2 [F,,F,]2 || %254
 [D,,D,]2 .[F,A,D]2 [A,,,A,,]2 .[F,A,D]2 | [E,,E,]2 .[E,G,A,C]2 [A,,,A,,]2 .[E,G,A,C]2 | %256
 [D,,D,]2 .[F,A,_CD]2 [F,,F,]2 .[F,A,CD]2 | [A,,A,]2 .[F,A,_CD]2 [D,,D,]2 .[F,A,CD]2 | %258
 [G,,G,]2 .[G,B,D]2 [D,,D,]2 .[G,B,D]2 | [__B,,_F,__A,]2 .[A,__B,D_F]2 [__B,,,B,,]2 .[A,B,DF]2 | %260
 [D,,D,]2 .[F,A,D]2 [D,,D,]2 .[_C,,_C,]2 | [B,,,B,,]2 .[F,A,B,=D]2 [B,,B,]2 .[F,A,B,D]2 | %262
 [E,,E,]2 .[E,=G,B,D]2 [E,,E,]2 .[E,G,B,D]2 | [A,,E,G,]2 .[E,G,A,C]2 [A,,A,]2 .[E,G,A,C]2 | %264
 [D,F,A,D]2 [B,,B,]2 [A,,A,]2 [F,,F,]2 | [D,,D,]2 [A,,,A,,]2 [D,,,D,,]3 =B,,- || %266
 [B,,=B,]C-[C,C]D,- [D,D]=D-[=D,D]E,- | [E,E]=E-[=E,E]F,- [F,F]G-[G,G]=G,- | %268
 [G,=G]A-[A,A]=A,- [A,=A]_A- [_A,A]2 | %269
[K:Db][M:7/4]!ped! [G,G]2!ped! [E,E]2!ped-up!!ped! [A,,A,]2!ped-up!!ped! [G,,G,]2!ped-up! [E,,E,]2!ped-up!!ped! [C,,C,]2!ped-up!!ped! [A,,,A,,]2- | %270
[K:Db][M:4/4] [A,,,A,,]8!ped! | x6!ped-up! %271
!ped! [D,,,D,,]2 [F,A,_CD]2[I:staff -1] [A,CDF]2 [CDFA]2!ped-up! | %272
!ped![I:staff +1] [G,,,G,,]2 [G,D_F]2 x4!ped-up! | %273
[K:Db][M:10/4] .[D,,D,] z x8!ped-up!!ped!!ped-up!!ped! x8!ped-up!!ped! x2 | %274
[M:4/4]!ped! !arpeggio![__B,,,_F,,__B,,]8 | x10!ped-up!!ped!{[__B,,_F,__A,]-} [B,,F,A,]8!ped-up! | %276
[M:9/8]!ped! z !arpeggio![A,,E,G,]2 [A,EG]2!ped-up!!ped! !arpeggio![A,CE]4 | %277
[M:11/4]!ped! !>![D,,,D,,]2-!f! D,/F,/A,/ x16!ped-up! x2 x/ |[M:4/4] x4 x2 !>!.[D,,,D,,]2 |] %279
V:3
 x2 | x8 | x8 | x8 | x2!8vb(! x2!8vb)! x2!8vb(! x2!8vb)! | x2!8vb(! x2!8vb)! x2!8vb(! x2!8vb)! | %6
[M:7/4] x8!8vb(! x6 | x5/2 =E,,/G,,/B,,/!8vb)! x10 ||[M:4/4]!8vb(! x8 | x8 | x8 | x8 || %12
 x2!8vb)! x6 | x8 | x8 | x8 | x8 | x8 | x8 | x8 | x8 | x8 | x8 | x8 | x8 | x8 | F,4 =E,4 | x8 | %28
 x8 | x8 | x8 | x8 | x8 | x8 | x8 | x8 | x8 | x8 | x8 | x8 | x8 | x8 | F,4 =E,4 | x8 || x8 | x8 | %46
 x8 | x8 | x8 | x8 | x8 | x8 | x8 | x8 | x8 | x8 | x8 | x8 | x8 | x8 || x8 | x8 | x8 | x8 | x8 | %65
 x8 | x8 | x8 | x8 | x8 | x8 | x8 | x8 | x8 | x8 | x8 || x4!8vb(! x2!8vb)! x2 | %77
!8vb(! x2!8vb)! x2!8vb(! x2!8vb)! x2 | x8 | x8 | x8 | x8 | x8 | x8 | x8 | x8 | x8 | x8 | x8 | x8 | %90
 F,4 =E,4 | x8 ||[K:Db] x8 | x8 | x8 | x8 | x8 | x8 || x8 | x8 | x8 | x8 | x8 | x8 | x8 | x8 | x8 | %107
 x8 | x8 | x8 || x8 | x8 | x8 | x8 | x8 | x8 | x8 | x8 | x8 | x8 | x8 | x8 || x8 | x8 | x8 | x8 | %126
 x8 | x8 | x8 | x8 | x8 | x8 | x8 | x8 || x8 | x8 | x8 | x8 | x8 | x8 | x8 | x8 | x8 | x8 | x8 | %145
 x4!8vb(! x4!8vb)! || x8 | x8 | x8 | x8 | x8 | x8 | x8 | x8 | x8 | x8 | x8 | x8 | x8 | x8 | x8 | %161
 x8 || x8 | x8 | x8 | x8 | x8 | x8 | x8 | x8 | x8 | x8 | x8 | x8 || x8 | x8 | x8 | x8 | x8 | x8 | %180
 x8 | x8 | x!8vb(! x2!8vb)! x5 | x8 | x8 | x8 || x8 | x8 | x8 | x8 | x8 | x8 | x8 | x8 | x8 | x8 | %196
 x8 | x8 | x8 | x8 | x8 | x8 || x8 | x8 | x8 | x8 | x8 | x8 | x8 | x8 | x8 | x8 | x8 | x8 || x8 | %215
 x8 | x8 | x8 | x8 | x8 | x8 | x8 | x8 | x8 | x8 | x8 || x8 | x8 | x8 | x8 | x8 | x8 | x8 | x8 | %234
 x8 | x8 | x8 | x8 | x8 | x8 | x8 | x8 | x8 | x8 | x8 | x8 | x8 | x8 | x8 | x8 | x8 | x8 | x8 | %253
 x8 || x8 | x8 | x8 | x8 | x8 | x8 | x8 | x8 | x8 | x8 | x8 | x8 || x8 | x8 | x8 | %269
[K:Db][M:7/4] x14 |[K:Db][M:4/4] x8 | x8 | x8 |[K:Db][M:10/4] x20 |[M:4/4] x8 | x8 |[M:9/8] x9 | %277
[M:11/4] x22 |[M:4/4] x8 |] %279
V:4
 x2 | x8 | x8 | x8 | x8 | x8 |[M:7/4] x14 | x8!8va(! x2!8va)!!8va(! x4!8va)! ||[M:4/4] x8 | x8 | %10
 x8 |[K:bass] z8 ||[K:treble] x8 | x8 | x8 | x8 | x8 | x8 | g2- gf- f2 f2 | x8 | x8 | x8 | x8 | %23
 x8 | x8 | [c-_e]2 [ce][_cd]- [cd]c x2 | =B2 x6 | x8 | x8 | x8 | x8 | x8 | x8 | x8 | %34
 g2- gf- f2 f2 | x8 | x8 | x8 | x8 | x8 | x8 | [c-_e]2 [ce][_cd]- [cd]c x2 | =B2 x6 | x8 || x8 | %45
 x5!8va(! x3 | x8 | x5!8va)! x3 | x8 | x4 [cf]4 | g2 _g2- g =g2 f- | f2 e2 =d4 | x8 | x5!8va(! x3 | %54
 x8 | x!8va)! x7 | x8 | d3 =B- B2 x2 | x8 | x8 || x8 | x5!8va(! x3 | x8 | x5!8va)! x3 | x8 | %65
 x4 [cf]4 | g2 _g2- g =g2 f- | f2 e2 =d4 | x8 | x5!8va(! x3 | x8 | x!8va)! x7 | x8 | d3 =B- B2 x2 | %74
 x8 | x8 || x8 | x8 | x8 | x8 | x8 | x8 | g2- gf- f2 f2 | x8 | x8 | x8 | x8 | x8 | x8 | %89
 [c-_e]2 [ce][_cd]- [cd]c x2 | =B2 x6 | x8 ||[K:Db] x8 | x8 | x5!8va(! x3 | %95
 !arpeggio!.[ceg]2 !arpeggio!.[_ceg]2 !arpeggio!.[Beg]2 !arpeggio!.[__Beg]2 | %96
 !arpeggio![Aeg]8!8va)! |!8va(! x4!8va)! x4 || x8 | x8 | x8 | x8 | x8 | x8 | x8 | x8 | x8 | x8 | %108
 x8 | x8 || x8 | x8 | x8 | x8 | x8 | x8 | x8 | x8 | x8 | x8 | x8 | x8 || x8 | x8 | x8 | x8 | x8 | %127
 x8 | x8 | x8 | x8 | x8 | x8 | x8 || x8 | x8 | x8 | x8 | x8 | x8 | x8 | x8 | x8 | x8 | x8 | x8 || %146
 x8 | x8 | x8 | x8 | x8 | x8 | x8 | x8 | x8 | x8 | x8 | x8 | x8 | x8 | x8 | x8 || x8 | x8 | x8 | %165
 x8 | x8 | x8 | x8 | x8 | x8 | x8 | x8 | __A_FA[EG]- x4 || x8 | x8 | x8 | x8 | x8 | x8 | x8 | x8 | %182
 x8 | x8 | x8 | x8 || x8 | x8 | G4 F2 x2 | x8 | x8 | x8 | x8 | x8 | x8 | x8 | x8 | x8 | x8 | x8 | %200
 x8 | x8 || x8 | x8 | x8 | x8 | x8 | x8 | x8 | x8 | x8 | x8 | x8 | x8 || x8 | x8 | x8 | x8 | x8 | %219
 x8 | x8 | x8 | x8 | x8 | x8 | x8 || x8 | x8 | x8 | x8 | x8 | x8 | x8 | x8 | x8 | x8 | x8 | x8 | %238
 x8 | x8 | x8 | x8 | x8 | x8 | x8 | x8 | x8 | x8 | x8 | x8 | x8 | x8 | x8 | x8 || x8 | x8 | x8 | %257
 x3!8va(! x5 | x8 | x8 | x8 | x4!8va)! x4 | x8 | x8 | x8 | x8 || x8 | x8 | x8 |[K:Db][M:7/4] x14 | %270
[K:Db][M:4/4] x8 | x8 | x4 !arpeggio![Gd_f]2!8va(! !arpeggio![gd'_f']2!8va)! | %273
[K:Db][M:10/4] x2 !arpeggio![df]2- [df] x15 |[M:4/4] x8 | x8 |[M:9/8] x9 | %277
[M:11/4] x21/2!8va(! x7/2!8va)!!8va(! x8!8va)! |[M:4/4] x8 |] %279

